source/img/svg/services-tooltip.svg

<svg width="126" height="144" viewBox="0 0 126 144" fill="none" xmlns="http://www.w3.org/2000/svg">
<path d="M70.3224 126.622C101.854 123.168 125.942 95.6696 125.942 63.1791C125.942 28.4179 97.7626 0.238281 63.0014 0.238281C28.2401 0.238281 0.0605469 28.4179 0.0605469 63.1791C0.0605469 90.1532 17.0288 113.164 40.8736 122.12L22.6348 143.338L57.3612 129.48C61.4879 127.833 65.9056 127.106 70.3224 126.622Z" fill="#B6D7FF"/>
<path d="M57.6669 75.1787L55.427 24.7803H72.5624L70.2105 75.1787H57.6669ZM63.9387 100.602C59.0109 100.602 54.867 96.458 54.867 91.6421C54.867 86.7143 59.0109 82.5704 63.9387 82.5704C68.8666 82.5704 72.8984 86.7143 72.8984 91.6421C72.8984 96.458 68.8666 100.602 63.9387 100.602Z" fill="white"/>
</svg>

<svg width="126" height="144" fill="none" xmlns="http://www.w3.org/2000/svg"><path d="M70.322 126.622c31.532-3.454 55.62-30.952 55.62-63.443 0-34.761-28.18-62.94-62.94-62.94C28.24.238.06 28.417.06 63.178c0 26.974 16.968 49.985 40.813 58.941l-18.24 21.218 34.727-13.858c4.127-1.647 8.545-2.374 12.961-2.858z" fill="#B6D7FF"/><path d="M57.667 75.179l-2.24-50.399h17.135l-2.352 50.4H57.667zm6.272 25.423c-4.928 0-9.072-4.144-9.072-8.96 0-4.928 4.144-9.072 9.072-9.072 4.928 0 8.96 4.144 8.96 9.072 0 4.816-4.032 8.96-8.96 8.96z" fill="#fff"/></svg>
